X:275
T:The Flowers of Edinburgh, variation
B:Flowers of Scottish Melody, 1935
Z:Nigel Gatherer
M:4/4
L:1/8
K:G
GE|DCB,A, G,B,DG|BGdB cBAG|FGAF DEFG|AFdF EFGE|
DB,DE GFGA|BGdB eCge|dcBA GFGA|B2 G2 G2:|
(3def|gGBd gbag|fFAd fagf|egfa gfed|Becd efge|
dBGB dgfg|ecef agfe|dcBA GFGA|BGDB, G,2:|
